X: 7357
T: Cliffs Of Moher, The
R: jig
M: 6/8
K: Adorian
|:e2a bag|eaf ged|cBA BAG|EFG AB/c/d|
eaa bag|eaf ged|cBA BAG|EFG AB/c/d:|
|:efe dBA|efe dBA|GAB dBA|GAB ~d3|
[1 efe dBA|efe dBA|GAB dBG|EFG AB/c/d:|
[2 efe ded|cdc BAG|EFG BAG|EDB, A,3||

